X: 11452
T: Eavesdropper, The
R: jig
M: 6/8
K: Gmajor
|:D2B BAG|Bdd dBG|cee dBA|BAA AGE|
DBB BAG|Bdd dBG|cee dBA|BGF G3:|
|:gfg afd|efg ~d3|cee dBG|BAA Adf|
gab afd|efg dBG|cee dBA|BGF G2:|

